src/svg/tree.svg

<svg version="1.2" baseProfile="tiny" xmlns="http://www.w3.org/2000/svg" width="24" height="24" viewBox="0 0 24 24"><path d="M20.781 17.375l-2.7-3.375h.919c.373 0 .715-.207.887-.538.172-.331.146-.729-.068-1.035l-7-10c-.317-.452-.94-.562-1.393-.246-.091.063-.158.146-.221.231-.025.015-7.025 10.015-7.025 10.015-.214.306-.24.704-.068 1.035.173.331.515.538.888.538h.919l-2.7 3.375c-.24.301-.287.712-.121 1.059.167.345.518.566.902.566h7v3c0 .553.448 1 1 1s1-.447 1-1v-3h7c.384 0 .735-.221.901-.566.167-.347.12-.758-.12-1.059zm-7.781-.375v-5c0-.553-.448-1-1-1s-1 .447-1 1v5h-4.919l2.7-3.375c.24-.301.287-.712.121-1.059-.167-.345-.518-.566-.902-.566h-1.08l5.08-7.256 5.08 7.256h-1.08c-.384 0-.735.221-.901.566-.167.347-.12.758.121 1.059l2.7 3.375h-4.92z"/></svg>

<?xml version="1.0" encoding="iso-8859-1"?>
<!-- Generator: Adobe Illustrator 16.2.1, SVG Export Plug-In . SVG Version: 6.00 Build 0)  -->
<svg version="1.2" baseProfile="tiny" xmlns="http://www.w3.org/2000/svg" xmlns:xlink="http://www.w3.org/1999/xlink" x="0px"
	 y="0px" width="24px" height="24px" viewBox="0 0 24 24" xml:space="preserve">
<g id="Layer_1">
	<path d="M20.781,17.375L18.081,14H19c0.373,0,0.715-0.207,0.887-0.538c0.172-0.331,0.146-0.729-0.068-1.035l-7-10
		c-0.317-0.452-0.94-0.562-1.393-0.246c-0.091,0.063-0.158,0.146-0.221,0.231c-0.025,0.015-7.025,10.015-7.025,10.015
		c-0.214,0.306-0.24,0.704-0.068,1.035C4.285,13.793,4.627,14,5,14h0.919l-2.7,3.375c-0.24,0.301-0.287,0.712-0.121,1.059
		C3.265,18.779,3.616,19,4,19h7v3c0,0.553,0.448,1,1,1s1-0.447,1-1v-3h7c0.384,0,0.735-0.221,0.901-0.566
		C21.068,18.087,21.021,17.676,20.781,17.375z M13,17v-5c0-0.553-0.448-1-1-1s-1,0.447-1,1v5H6.081l2.7-3.375
		c0.24-0.301,0.287-0.712,0.121-1.059C8.735,12.221,8.384,12,8,12H6.92L12,4.744L17.08,12H16c-0.384,0-0.735,0.221-0.901,0.566
		c-0.167,0.347-0.12,0.758,0.121,1.059l2.7,3.375H13z"/>
</g>
<g id="nyt_x5F_exporter_x5F_info" display="none">
</g>
</svg>
